svgs/sharp-duotone-light/ditto.svg

<svg xmlns="http://www.w3.org/2000/svg" viewBox="0 0 320 512"><!--! Font Awesome Pro 7.1.0 by @fontawesome - https://fontawesome.com License - https://fontawesome.com/license (Commercial License) Copyright 2025 Fonticons, Inc. --><path opacity=".4" fill="currentColor" d="M32 64L32 101.2 58.9 256 69.1 256 96 101.2 96 64 32 64zm192 0l0 37.2 26.9 154.8 10.2 0 26.9-154.8 0-37.2-64 0z"/><path fill="currentColor" d="M58.9 256L32 101.2 32 64 96 64 96 101.2 69.1 256 58.9 256zM128 32l-128 0 0 72 32 184 64 0 32-184 0-72zM250.9 256l-26.9-154.8 0-37.2 64 0 0 37.2-26.9 154.8-10.2 0zM320 32l-128 0 0 72 32 184 64 0 32-184 0-72z"/></svg>

<svg xmlns="http://www.w3.org/2000/svg" viewBox="0 0 320 512"><!--! Font Awesome Pro 6.7.2 by @fontawesome - https://fontawesome.com License - https://fontawesome.com/license (Commercial License) Copyright 2024 Fonticons, Inc. --><defs><style>.fa-secondary{opacity:.4}</style></defs><path class="fa-secondary" d="M32 64l0 37.2L58.9 256l10.2 0L96 101.2 96 64 32 64zm192 0l0 37.2L250.9 256l10.2 0L288 101.2 288 64l-64 0z"/><path class="fa-primary" d="M58.9 256L32 101.2 32 64l64 0 0 37.2L69.1 256l-10.2 0zM128 32L96 32 32 32 0 32 0 64l0 40L32 288l64 0 32-184 0-40 0-32zM250.9 256L224 101.2 224 64l64 0 0 37.2L261.1 256l-10.2 0zM320 32l-32 0-64 0-32 0 0 32 0 40 32 184 64 0 32-184 0-40 0-32z"/></svg>
